fs/note_edit_20_regular.svg

<svg viewBox="0 0 20 20" fill="none" xmlns="http://www.w3.org/2000/svg" height="1em" width="1em">
  <path d="M3.00509 14.1763C3.09634 15.7511 4.40232 17 6 17H8.00286C8.01015 16.8859 8.02795 16.7701 8.05716 16.6532L8.22047 16H6L5.85074 15.9945C4.81588 15.9182 4 15.0544 4 14V10H7L7.17627 9.99491C8.75108 9.90366 10 8.59768 10 7V4H14L14.1493 4.00549C15.1841 4.08183 16 4.94564 16 6V8.00299C16.3368 7.98764 16.6757 8.03128 17 8.13392V6L16.9949 5.82373C16.9037 4.24892 15.5977 3 14 3H9.62132L9.44547 3.00774C8.97949 3.04885 8.5405 3.25239 8.20711 3.58579L3.58579 8.20711L3.46691 8.33693C3.16649 8.69549 3 9.14982 3 9.62132V14L3.00509 14.1763ZM7 9L4.2175 8.99866C4.2409 8.96925 4.26606 8.94105 4.29289 8.91421L8.91421 4.29289L9 4.219V7L8.99451 7.14926C8.91817 8.18412 8.05436 9 7 9ZM9.97975 14.3772L14.8092 9.54776C15.5395 8.81741 16.7237 8.81741 17.454 9.54776C18.1843 10.2781 18.1843 11.4622 17.454 12.1926L12.6246 17.022C12.343 17.3036 11.9902 17.5033 11.6039 17.5999L10.106 17.9744C9.45456 18.1372 8.86451 17.5472 9.02737 16.8958L9.40184 15.3979C9.49842 15.0116 9.69818 14.6588 9.97975 14.3772Z" fill="#212121"/>
</svg>

<svg viewBox="0 0 20 20" fill="none" xmlns="http://www.w3.org/2000/svg" height="1em" width="1em">
  <path d="M3.005 14.176A3 3 0 0 0 6 17h2.003c.007-.114.025-.23.054-.347L8.22 16H6l-.15-.005A2 2 0 0 1 4 14v-4h3l.176-.005A3 3 0 0 0 10 7V4h4l.15.005A2 2 0 0 1 16 6v2.003a2.88 2.88 0 0 1 1 .13V6l-.005-.176A3 3 0 0 0 14 3H9.621l-.176.008a2 2 0 0 0-1.238.578L3.586 8.207l-.12.13A2 2 0 0 0 3 9.62V14l.005.176ZM7 9l-2.782-.001a.86.86 0 0 1 .075-.085l4.621-4.621L9 4.219V7l-.005.15A2 2 0 0 1 7 9Zm2.98 5.377 4.83-4.83a1.87 1.87 0 1 1 2.644 2.646l-4.83 4.829a2.197 2.197 0 0 1-1.02.578l-1.498.374a.89.89 0 0 1-1.079-1.078l.375-1.498a2.18 2.18 0 0 1 .578-1.02Z" fill="#212121"/>
</svg>
